src/topics/icons/couchdb.svg

<svg height="204" preserveAspectRatio="xMidYMid" viewBox="0 0 256 204" width="256" xmlns="http://www.w3.org/2000/svg"><path d="m234.286972 57.1713761v-44.3478899h-212.5128803v44.3478899h-16.62708253v90.8682569h245.44645883v-90.8682569z" fill="#f00"/><path d="m.71045872 149.970202v-97.2365506h16.62825688v-44.34671562h221.3836334v44.34671562h16.305321v97.2365506zm6.93431192-3.49123 239.55258736.210202-1.038092-85.0824217h-16.311193v-44.3490642h-203.6409537v44.3490642h-16.62825691l-1.62172478 82.0573947z" fill="#eb1019"/><path d="m32.8478532 8.01937615v19.98561465l7.5743119 10.2470459 22.2649542-7.5602202-.0904221-30.17746788z" fill="#fff"/><path d="m37.4593761 109.963743 50.2452845 11.353248 130.6903484-12.176441.030532 39.633028h-181.0671557z" fill="#bd101d" stroke="#bd101d"/><path d="m186.996257 81.8354495-13.657248-5.666055-28.400734-19.3890642-33.931743 10.3257247-73.5800366-5.5709357v26.1037798l46.6565872 13.3859819 133.3172844-11.8417617v-27.2287707z" fill="#bd101d" stroke="#bd101d"/><path d="m17.3199266 44.2151927-8.41042201 8.8965871v23.8549725l11.87464221 5.0542385v-13.7782018l5.0530642 3.9597798v-9.4132844l11.5892844-.0023486 21.4499817 32.2982752 7.9101651 2.157211 10.7414312 44.512294 5.5732844 2.311045 3.9421651 16.285358h31.0828621l-14.947816-61.7782016 42.225908-27.4178348 22.964844 19.4043302 5.579156-2.1853945 2.117284 5.7693945 41.334606-3.7096513-3.587523-9.1572844-23.256073-5.6871927-42.109652-34.3098716-45.882715 17.4044771-14.0987893-18.5541284 21.2397793-21.5932477h20.243964l7.986495 6.7288073v-6.7288073h15.910753l-3.843523-8.92946793-46.603744-7.37937615-43.0232656 27.55405508z" fill="#fff"/><g transform="translate(3.522936 156.183486)"><path d="m34.0644404 45.1957431c-1.8777248.971156-6.019523 2.0068991-11.2616514 2.0068991-13.84983487 0-22.26377983-8.7368807-22.26377983-22.0054312 0-14.3677064 9.96638533-23.0411743 23.29952293-23.0411743 5.2421285 0 8.9964037 1.10150458 10.6146055 1.94113761l-1.7473761 6.34245869c-2.0714863-.90539447-4.9180184-1.68278896-8.5431193-1.68278896-8.8672294 0-15.27427523 5.56623856-15.27427523 16.05049536 0 9.5788624 5.63082573 15.728734 15.20968803 15.728734 3.2364037 0 6.6019817-.6482202 8.6722936-1.6182018z"/><path d="m68.4283303 30.4405138c0 11.5845871-8.154422 16.7621284-16.1808441 16.7621284-8.9318165 0-15.7921468-6.1486972-15.7921468-16.2454312 0-10.3550826 6.7957432-16.6987156 16.3100184-16.6987156 9.3839266.0011743 15.6629725 6.603156 15.6629725 16.1820184zm-23.7539817.3229357c0 6.0841101 2.9768808 10.6791927 7.8314863 10.6791927 4.5304954 0 7.7023119-4.4659083 7.7023119-10.808367 0-4.9180183-2.2006606-10.548844-7.6365505-10.548844-5.632 0-7.8972477 5.4347156-7.8972477 10.6780183z"/><path d="m102.097028 37.0413211c0 3.7542752.129174 6.8603303.259522 9.4496881h-6.9906784l-.3886973-4.7888441h-.1291743c-1.3586789 2.2652477-4.4659083 5.5016514-10.0967339 5.5016514-5.76 0-11.0033028-3.4301651-11.0033028-13.7218348v-18.5106789h7.9606606v17.1508256c0 5.2421285 1.6827889 8.6077065 5.8891743 8.6077065 3.1718165 0 5.2421284-2.2652477 6.0841101-4.2721468.2595229-.7116331.4532844-1.5524404.4532844-2.4590092v-19.0285505h7.9606603v22.0711927z"/><path d="m132.699596 45.5198532c-1.683963.7773945-4.983779 1.6839633-8.931816 1.6839633-9.837211 0-16.244257-6.3424587-16.244257-16.1162569 0-9.449688 6.471633-16.8278899 17.539523-16.8278899 2.912293 0 5.890348.6470459 7.702312 1.4890275l-1.423266 5.9537615c-1.295266-.5824587-3.170642-1.2295046-6.019523-1.2295046-6.08411 0-9.708037 4.4659083-9.64345 10.2259083 0 6.4728073 4.20756 10.1613211 9.64345 10.1613211 2.783119 0 4.724257-.5824587 6.277871-1.2295046z"/><path d="m137.281761.53783486h8.025248v18.76902754h.130349c.969981-1.4890275 2.32866-2.7831193 3.946862-3.6239266 1.552441-.9053945 3.43134-1.4244404 5.437064-1.4244404 5.371303 0 11.003303 3.5593395 11.003303 13.6560734v18.5752661h-7.96066v-17.6686973c0-4.5950826-1.683964-8.026422-6.085285-8.026422-3.106055 0-5.30789 2.0714862-6.147523 4.4659083-.259523.6482201-.32411 1.4902018-.32411 2.3955963v18.8336147h-8.025248z"/><path d="m173.495193 3.45012844c3.495926-.58245872 7.96066-.9053945 12.686091-.9053945 8.154422 0 13.785248 1.682789 17.797872 5.04836698 4.20756 3.43016518 6.795743 8.60770638 6.795743 16.05166968 0 7.7657248-2.653945 13.590312-6.795743 17.3457615-4.33556 3.9480367-11.261651 5.9537615-19.740184 5.9537615-4.660844 0-8.154422-.259523-10.743779-.5824587zm7.96066 36.95677066c1.10033.1937615 2.783119.1937615 4.401321.1937615 10.355083.0657614 16.50378-5.6308257 16.50378-16.6987156.065762-9.6434496-5.501651-15.14392665-15.468037-15.14392665-2.523596 0-4.336734.19376147-5.437064.4532844z"/><path d="m216.783853 3.45012844c2.523597-.51669725 7.118679-.9053945 11.584587-.9053945 5.890349 0 9.51545.71163303 12.492331 2.78311927 2.717357 1.61820184 4.529321 4.46590826 4.529321 8.15442199 0 4.0126239-2.523597 7.702312-7.249028 9.4496881v.1291743c4.596257 1.1649174 8.802642 4.7888441 8.802642 10.808367 0 3.8834495-1.682789 6.9249174-4.206385 8.9964037-3.107229 2.7173578-8.220183 4.077211-16.180844 4.077211-4.401321 0-7.765725-.3229358-9.772624-.5824587zm7.896074 17.21658716h4.078385c5.501651 0 8.607706-2.5881835 8.607706-6.2778716 0-4.0783853-3.107229-5.95376143-8.154422-5.95376143-2.329835 0-3.689688.12917431-4.530495.32293578v11.90869725zm0 20.0642936c1.035743.1937614 2.395596.1937614 4.207559.1937614 5.112954 0 9.64345-1.9411376 9.64345-7.3136146 0-5.048367-4.401321-7.1186789-9.902973-7.1186789h-3.948036z"/></g></svg>

<?xml version="1.0" encoding="UTF-8" standalone="no" ?>
<svg width="256px" height="204px" viewBox="0 0 256 204" version="1.1" xmlns="http://www.w3.org/2000/svg" xmlns:xlink="http://www.w3.org/1999/xlink" preserveAspectRatio="xMidYMid">
    <g>
        <path d="M234.286972,57.1713761 L234.286972,12.8234862 L21.7740917,12.8234862 L21.7740917,57.1713761 L5.14700917,57.1713761 L5.14700917,148.039633 L250.593468,148.039633 L250.593468,57.1713761 L234.286972,57.1713761 Z" fill="#FF0000"></path>
        <path d="M0.710458716,149.970202 L0.710458716,52.7336514 L17.3387156,52.7336514 L17.3387156,8.38693578 L238.722349,8.38693578 L238.722349,52.7336514 L255.02767,52.7336514 L255.02767,149.970202 L0.710458716,149.970202 L0.710458716,149.970202 Z M7.64477064,146.478972 L247.197358,146.689174 L246.159266,61.6067523 L229.848073,61.6067523 L229.848073,17.2576881 L26.2071193,17.2576881 L26.2071193,61.6067523 L9.57886239,61.6067523 L7.95713761,143.664147 L7.64477064,146.478972 L7.64477064,146.478972 Z" fill="#EB1019"></path>
        <path d="M32.8478532,8.01937615 L32.8478532,28.0049908 L40.4221651,38.2520367 L62.6871193,30.6918165 L62.5966972,0.514348624 L32.8478532,8.01937615 Z" fill="#FFFFFF"></path>
        <path d="M37.4593761,109.963743 L87.7046606,121.316991 L218.395009,109.14055 L218.425541,148.773578 L37.3583853,148.773578 L37.4593761,109.963743 Z" stroke="#BD101D" fill="#BD101D"></path>
        <path d="M186.996257,81.8354495 L173.339009,76.1693945 L144.938275,56.7803303 L111.006532,67.106055 L37.4264954,61.5351193 L37.4264954,87.6388991 L84.0830826,101.024881 L217.400367,89.1831193 L217.400367,61.9543486 L186.996257,81.8354495 Z" stroke="#BD101D" fill="#BD101D"></path>
        <path d="M17.3199266,44.2151927 L8.90950459,53.1117798 L8.90950459,76.9667523 L20.7841468,82.0209908 L20.7841468,68.242789 L25.837211,72.2025688 L25.837211,62.7892844 L37.4264954,62.7869358 L58.8764771,95.085211 L66.7866422,97.242422 L77.5280734,141.754716 L83.1013578,144.065761 L87.0435229,160.351119 L118.126385,160.351119 L103.178569,98.5729174 L145.404477,71.1550826 L168.369321,90.5594128 L173.948477,88.3740183 L176.065761,94.1434128 L217.400367,90.4337615 L213.812844,81.2764771 L190.556771,75.5892844 L148.447119,41.2794128 L102.564404,58.6838899 L88.4656147,40.1297615 L109.705394,18.5365138 L129.949358,18.5365138 L137.935853,25.2653211 L137.935853,18.5365138 L153.846606,18.5365138 L150.003083,9.60704587 L103.399339,2.22766972 L60.3760734,29.7817248 L17.3199266,44.2151927 Z" fill="#FFFFFF"></path>
        <g transform="translate(3.522936, 156.183486)" fill="#000000">
            <path d="M34.0644404,45.1957431 C32.1867156,46.1668991 28.0449174,47.2026422 22.802789,47.2026422 C8.95295413,47.2026422 0.539009174,38.4657615 0.539009174,25.197211 C0.539009174,10.8295046 10.5053945,2.1560367 23.8385321,2.1560367 C29.0806606,2.1560367 32.8349358,3.25754128 34.4531376,4.09717431 L32.7057615,10.439633 C30.6342752,9.53423853 27.7877431,8.75684404 24.1626422,8.75684404 C15.2954128,8.75684404 8.88836697,14.3230826 8.88836697,24.8073394 C8.88836697,34.3862018 14.5191927,40.5360734 24.098055,40.5360734 C27.3344587,40.5360734 30.7000367,39.8878532 32.7703486,38.9178716 L34.0644404,45.1957431 L34.0644404,45.1957431 Z"></path>
            <path d="M68.4283303,30.4405138 C68.4283303,42.0251009 60.2739083,47.2026422 52.2474862,47.2026422 C43.3156697,47.2026422 36.4553394,41.053945 36.4553394,30.957211 C36.4553394,20.6021284 43.2510826,14.2584954 52.7653578,14.2584954 C62.1492844,14.2596697 68.4283303,20.8616514 68.4283303,30.4405138 L68.4283303,30.4405138 Z M44.6743486,30.7634495 C44.6743486,36.8475596 47.6512294,41.4426422 52.5058349,41.4426422 C57.0363303,41.4426422 60.2081468,36.9767339 60.2081468,30.6342752 C60.2081468,25.7162569 58.0074862,20.0854312 52.5715963,20.0854312 C46.9395963,20.0854312 44.6743486,25.5201468 44.6743486,30.7634495 L44.6743486,30.7634495 Z"></path>
            <path d="M102.097028,37.0413211 C102.097028,40.7955963 102.226202,43.9016514 102.35655,46.4910092 L95.3658716,46.4910092 L94.9771743,41.7021651 L94.848,41.7021651 C93.4893211,43.9674128 90.3820917,47.2038165 84.7512661,47.2038165 C78.9912661,47.2038165 73.7479633,43.7736514 73.7479633,33.4819817 L73.7479633,14.9713028 L81.7086239,14.9713028 L81.7086239,32.1221284 C81.7086239,37.3642569 83.3914128,40.7298349 87.5977982,40.7298349 C90.7696147,40.7298349 92.8399266,38.4645872 93.6819083,36.4576881 C93.9414312,35.746055 94.1351927,34.9052477 94.1351927,33.9986789 L94.1351927,14.9701284 L102.095853,14.9701284 L102.095853,37.0413211 L102.097028,37.0413211 Z"></path>
            <path d="M132.699596,45.5198532 C131.015633,46.2972477 127.715817,47.2038165 123.76778,47.2038165 C113.930569,47.2038165 107.523523,40.8613578 107.523523,31.0875596 C107.523523,21.6378716 113.995156,14.2596697 125.063046,14.2596697 C127.975339,14.2596697 130.953394,14.9067156 132.765358,15.7486972 L131.342092,21.7024587 C130.046826,21.12 128.17145,20.4729541 125.322569,20.4729541 C119.238459,20.4729541 115.614532,24.9388624 115.679119,30.6988624 C115.679119,37.1716697 119.886679,40.8601835 125.322569,40.8601835 C128.105688,40.8601835 130.046826,40.2777248 131.60044,39.6306789 L132.699596,45.5198532 L132.699596,45.5198532 Z"></path>
            <path d="M137.281761,0.537834862 L145.307009,0.537834862 L145.307009,19.3068624 L145.437358,19.3068624 C146.407339,17.8178349 147.766018,16.5237431 149.38422,15.6829358 C150.936661,14.7775413 152.81556,14.2584954 154.821284,14.2584954 C160.192587,14.2584954 165.824587,17.8178349 165.824587,27.9145688 L165.824587,46.4898349 L157.863927,46.4898349 L157.863927,28.8211376 C157.863927,24.226055 156.179963,20.7947156 151.778642,20.7947156 C148.672587,20.7947156 146.470752,22.8662018 145.631119,25.2606239 C145.371596,25.908844 145.307009,26.7508257 145.307009,27.6562202 L145.307009,46.4898349 L137.281761,46.4898349 L137.281761,0.537834862 L137.281761,0.537834862 Z"></path>
            <path d="M173.495193,3.45012844 C176.991119,2.86766972 181.455853,2.54473394 186.181284,2.54473394 C194.335706,2.54473394 199.966532,4.22752294 203.979156,7.59310092 C208.186716,11.0232661 210.774899,16.2008073 210.774899,23.6447706 C210.774899,31.4104954 208.120954,37.2350826 203.979156,40.9905321 C199.643596,44.9385688 192.717505,46.9442936 184.238972,46.9442936 C179.578128,46.9442936 176.08455,46.6847706 173.495193,46.3618349 L173.495193,3.45012844 L173.495193,3.45012844 Z M181.455853,40.4068991 C182.556183,40.6006606 184.238972,40.6006606 185.857174,40.6006606 C196.212257,40.666422 202.360954,34.9698349 202.360954,23.901945 C202.426716,14.2584954 196.859303,8.75801835 186.892917,8.75801835 C184.369321,8.75801835 182.556183,8.95177982 181.455853,9.21130275 L181.455853,40.4068991 L181.455853,40.4068991 Z"></path>
            <path d="M216.783853,3.45012844 C219.30745,2.93343119 223.902532,2.54473394 228.36844,2.54473394 C234.258789,2.54473394 237.88389,3.25636697 240.860771,5.32785321 C243.578128,6.94605505 245.390092,9.79376147 245.390092,13.4822752 C245.390092,17.4948991 242.866495,21.1845872 238.141064,22.9319633 L238.141064,23.0611376 C242.737321,24.226055 246.943706,27.8499817 246.943706,33.8695046 C246.943706,37.7529541 245.260917,40.794422 242.737321,42.8659083 C239.630092,45.5832661 234.517138,46.9431193 226.556477,46.9431193 C222.155156,46.9431193 218.790752,46.6201835 216.783853,46.3606606 L216.783853,3.45012844 L216.783853,3.45012844 Z M224.679927,20.6667156 L228.758312,20.6667156 C234.259963,20.6667156 237.366018,18.0785321 237.366018,14.388844 C237.366018,10.3104587 234.258789,8.43508257 229.211596,8.43508257 C226.881761,8.43508257 225.521908,8.56425688 224.681101,8.75801835 L224.681101,20.6667156 L224.679927,20.6667156 Z M224.679927,40.7310092 C225.71567,40.9247706 227.075523,40.9247706 228.887486,40.9247706 C234.00044,40.9247706 238.530936,38.983633 238.530936,33.611156 C238.530936,28.562789 234.129615,26.4924771 228.627963,26.4924771 L224.679927,26.4924771 L224.679927,40.7310092 L224.679927,40.7310092 Z"></path>
        </g>
    </g>
</svg>
